svg/info2.svg

<?xml version="1.0" encoding="UTF-8"?>
<svg xmlns="http://www.w3.org/2000/svg" xmlns:xlink="http://www.w3.org/1999/xlink" width="32" height="32" viewBox="0 0 32 32">
<path fill-rule="nonzero" fill="rgb(0%, 0%, 0%)" fill-opacity="1" d="M 16 1.28125 C 7.871094 1.28125 1.28125 7.871094 1.28125 16 C 1.28125 24.128906 7.871094 30.71875 16 30.71875 C 24.128906 30.71875 30.71875 24.128906 30.71875 16 C 30.71875 7.871094 24.128906 1.28125 16 1.28125 M 16 7.039062 C 17.058594 7.039062 17.921875 7.898438 17.921875 8.960938 C 17.921875 10.023438 17.0625 10.882812 16 10.882812 C 14.9375 10.882812 14.078125 10.023438 14.078125 8.960938 C 14.078125 7.898438 14.941406 7.039062 16 7.039062 M 18.558594 24.320312 L 13.441406 24.320312 L 13.441406 23.039062 L 14.71875 23.039062 L 14.71875 14.71875 L 13.441406 14.71875 L 13.441406 13.441406 L 17.28125 13.441406 L 17.28125 23.039062 L 18.558594 23.039062 Z M 18.558594 24.320312 "/>
</svg>

<svg role="img" viewBox="0 0 32 32" height="32" width="32" xmlns="http://www.w3.org/2000/svg"><path d="M16 1.281C7.871 1.281 1.281 7.871 1.281 16S7.871 30.719 16 30.719 30.719 24.129 30.719 16 24.129 1.281 16 1.281m0 5.758c1.059 0 1.922.86 1.922 1.922a1.922 1.922 0 0 1-3.844 0c0-1.063.863-1.922 1.922-1.922m2.559 17.281H13.44v-1.28h1.278v-8.321H13.44V13.44h3.84v9.598h1.278Zm0 0"/></svg>
